X:1
T:Kenilworth, 886.886
T:Kenilworth, 886.886
T:Francis Everard William Hulton, 1875
T:Public Domain Courtesy of the Cyber Hymnal™
C:Francis Everard William Hulton, 1875
Z:Public Domain
Z:Courtesy of the Cyber Hymnal™
%%score ( 1 2 ) ( 3 4 )
L:1/8
Q:1/4=110
M:4/4
K:A
V:1 treble 
V:2 treble 
V:3 bass 
V:4 bass 
V:1
 [CE]2 | [CA]2 [EB]2 [Dd]2 [Ec]2 | [FB]2 F2 [EG]2 E2 | [EA]2 [EB]2 [Ec]2 [EB]2 | %4
 [FA]2 [Ac]2 [Ge]2 [EB]2 | [Ec]2 E2 [EF]2 [^DB]2 | [EB]6 [EG]2 | [EA]2 [CE]2 [DF]2 [FB]2 | %8
 [^EA]2 [EG]2 F2 [FA]2 | [FB]2 [Fc]2 [Fe]2 d2 | c2 (BA) [EG]2 [EA]2 | [DB]2 [Cc]2 F2 B2 | A6 |] %13
V:2
 x2 | x8 | x8 | x8 | x8 | x8 | x8 | x8 | x8 | x6 (FG) | (AG) F2 x4 | x4 (CD) (FG) | A6 |] %13
V:3
 A,2 | [F,A,]2 [E,G,]2 (F,G,) [A,,A,]2 | [D,F,]2 [B,,D]2 [E,B,]2 G,2 | %3
 [C,A,]2 [E,G,]2 A,2 [G,B,]2 | [F,C]2 [F,A,]2 [E,B,]2 [G,,B,]2 | %5
 [A,,A,]2 ([A,C][G,B,]) [F,A,]2 [B,,A,]2 | [E,G,]6 [D,B,]2 | [C,A,]2 [A,,A,]2 [D,A,]2 [B,,D]2 | %8
 [C,C]2 [C,B,]2 [F,A,]2 [E,C]2 | [D,B,]2 [F,^A,]2 [^A,,C]2 [B,,D]2 | [C,E]2 (DC) [E,B,]2 [D,A,]2 | %11
 [B,,G,]2 [A,,A,]2 (^A,B,) (z E,) | [A,,C]6 |] %13
V:4
 (A,G,) | x4 B,,2 x2 | x6 (E,D,) | x4 A,2 x2 | x8 | x8 | x8 | x8 | x8 | x8 | x2 D,2 x4 | %11
 x4 D,2 D2 | x6 |] %13

